X: 105
T:Frisky Fanny (#301)
M:4/4
L:1/8
S:Capt. F. O'Neill
R:Reel
K:G
(3def|g2 "tr"gf g2 d2|edBc dBGB|A2 AG A2 B2|DEGA BG G2|
gfaf g2 d2|edBc dBGB|A2 AG A2 D2|(3EFG AF G2||
D2|GABc dg ~g2|edBc dg ~g2|edce dcBd|(3cBA BG AGEF|
GABc dggd|edBc dg g2|edce dcBd|cBAB G2||

